X:242
T:Excuse Me. (p)1686.PLFD.242
M:6/4
L:1/4
Q:3/4=90
S:Playford, Dancing Master,7th Ed.,1686
O:England
H:1686.
Z:Chris Partington.
K:Bb
G2GG2g|f2ed2e|f>gfcdB|A3F3|
f>gf=e>fe|d>edc>BA|B>AGA^F2|G6:|
|:B2cdBG|B2cdBG|B2cd2g|^f3d3:|
|:ABcc>dc|f2dA2A|Bcdd>ed|g2f=e>dc|
f2ff>ed|c2BABc|B>AGA^F2|G6:|
